T: Coleman's
M: 9/8
L: 1/8
K: Amin
|:e2A A2G E2D|E2A A2B c2d| e2A A2G E2D|E2G G2F G2d|e2A A2G E2D|E2A A2B c2d| e2A A2G E2D|E2G G2F G3||:e2a a2g a2g|e2a a2f gfe| d2g g2f g3|a2g g2e d2g|e2a a2g a2g|e2a a2f gfe| d2g g2f g3|a2g g2e d2g||
